X:156
T:Sl\"angpolska fr{\aa}n H\"o\"or
R:sl\"angpolska
H:inspelningen jag f{\aa}tt den ifr{\aa}n g{\aa}r i Em. Jfr #187, #228
A:Sk{\aa}ne
Z:id:hn-sp-156
M:3/4
L:1/16
K:Dm
A3^G A4 ^c4 | d2d^c d4 e4 | f2ef g2f2 e2d2 | d2^cd e4 e4 :|
|: f2fd c4 A2c2 | B2BG A4 F4 | G2G2 A2A2 G2F2 | E2EF D8 :|
<end>
<start>
